images/icons/source/calculator.svg

<svg width="48" height="48" viewBox="0 0 48 48" version="1.1" xmlns="http://www.w3.org/2000/svg" xmlns:xlink="http://www.w3.org/1999/xlink" xmlns:figma="http://www.figma.com/figma/ns">
<title>calculator</title>
<desc>Created using Figma</desc>
<g id="Canvas" transform="translate(145 -35)" figma:type="canvas">
<mask id="mask0_alpha" mask-type="alpha">
<path d="M -145 35L -97 35L -97 83L -145 83L -145 35Z" fill="#FFFFFF"/>
</mask>
<g id="calculator" style="mix-blend-mode:normal;" mask="url(#mask0_alpha)" figma:type="frame">
<g id="Vector" style="mix-blend-mode:normal;" figma:type="vector">
<use xlink:href="#path0_fill" transform="translate(-145 35)" fill="#3BB75E" style="mix-blend-mode:normal;"/>
<use xlink:href="#path1_fill" transform="translate(-145 35)" fill="#3BB75E" style="mix-blend-mode:normal;"/>
<use xlink:href="#path2_fill" transform="translate(-145 35)" fill="#3BB75E" style="mix-blend-mode:normal;"/>
<use xlink:href="#path3_fill" transform="translate(-145 35)" fill="#3BB75E" style="mix-blend-mode:normal;"/>
<use xlink:href="#path4_fill" transform="translate(-145 35)" fill="#3BB75E" style="mix-blend-mode:normal;"/>
<use xlink:href="#path5_fill" transform="translate(-145 35)" fill="#3BB75E" style="mix-blend-mode:normal;"/>
</g>
</g>
</g>
<defs>
<path id="path0_fill" d="M 42.9362 0L 42.9362 0L 5.06376 0L 5.06376 3.68387e-34C 2.27168 3.34037e-17 0 2.27168 0 5.06376L 0 5.06376L 0 42.9362L 3.68387e-34 42.9362C 3.34037e-17 45.7283 2.27168 48 5.06376 48L 5.06376 48L 42.9356 48L 42.9356 48C 45.7283 48 48 45.7283 48 42.9362L 48 42.9362L 48 5.06376L 48 5.06376C 48 2.27168 45.729 0 42.9362 0ZM 23.0303 45.0606C 23.0303 45.6129 22.5826 46.0606 22.0303 46.0606L 5.06376 46.0606L 5.06376 46.0606C 3.34093 46.0606 1.93939 44.6591 1.93939 42.9362L 1.93939 42.9362L 1.93939 25.9697C 1.93939 25.4174 2.38711 24.9697 2.93939 24.9697L 22.0303 24.9697C 22.5826 24.9697 23.0303 25.4174 23.0303 25.9697L 23.0303 45.0606ZM 23.0303 22.0303C 23.0303 22.5826 22.5826 23.0303 22.0303 23.0303L 2.93939 23.0303C 2.38711 23.0303 1.93939 22.5826 1.93939 22.0303L 1.93939 5.06376L 1.93939 5.06376C 1.93939 3.34093 3.34093 1.93939 5.06376 1.93939L 5.06376 1.93939L 22.0303 1.93939C 22.5826 1.93939 23.0303 2.38711 23.0303 2.93939L 23.0303 22.0303ZM 46.0606 42.9362L 46.0606 42.9362C 46.0606 44.6591 44.6591 46.0606 42.9356 46.0606L 42.9356 46.0606L 25.9697 46.0606C 25.4174 46.0606 24.9697 45.6129 24.9697 45.0606L 24.9697 25.9697C 24.9697 25.4174 25.4174 24.9697 25.9697 24.9697L 45.0606 24.9697C 45.6129 24.9697 46.0606 25.4174 46.0606 25.9697L 46.0606 42.9362ZM 46.0606 22.0303C 46.0606 22.5826 45.6129 23.0303 45.0606 23.0303L 25.9697 23.0303C 25.4174 23.0303 24.9697 22.5826 24.9697 22.0303L 24.9697 2.93939C 24.9697 2.38711 25.4174 1.93939 25.9697 1.93939L 42.9356 1.93939L 42.9356 1.93939C 44.6591 1.93939 46.0606 3.34093 46.0606 5.06376L 46.0606 5.06376L 46.0606 22.0303Z"/>
<path id="path1_fill" d="M 11.4075 17.3744C 11.4075 17.9099 11.8417 18.3441 12.3772 18.3441L 12.3772 18.3441C 12.9128 18.3441 13.3469 17.9099 13.3469 17.3744L 13.3469 14.4956C 13.3469 13.9433 13.7946 13.4956 14.3469 13.4956L 17.2257 13.4956C 17.7612 13.4956 18.1954 13.0614 18.1954 12.5259L 18.1954 12.5259C 18.1954 11.9903 17.7612 11.5562 17.2257 11.5562L 14.3469 11.5562C 13.7946 11.5562 13.3469 11.1085 13.3469 10.5562L 13.3469 7.67741C 13.3469 7.14186 12.9128 6.70772 12.3772 6.70772L 12.3772 6.70772C 11.8417 6.70772 11.4075 7.14186 11.4075 7.67741L 11.4075 10.5562C 11.4075 11.1085 10.9598 11.5562 10.4075 11.5562L 7.52873 11.5562C 6.99318 11.5562 6.55903 11.9904 6.55903 12.5259L 6.55903 12.5259C 6.55903 13.0614 6.99318 13.4956 7.52873 13.4956L 10.4075 13.4956C 10.9598 13.4956 11.4075 13.9433 11.4075 14.4956L 11.4075 17.3744Z"/>
<path id="path2_fill" d="M 8.26337 39.5361C 8.64203 39.9148 9.25596 39.9147 9.63459 39.536L 11.6701 37.5001C 12.0606 37.1095 12.6938 37.1095 13.0844 37.5001L 15.1205 39.5361C 15.4991 39.9148 16.113 39.9148 16.4917 39.5361L 16.4917 39.5361C 16.8703 39.1575 16.8703 38.5436 16.4917 38.165L 14.4559 36.1288C 14.0655 35.7383 14.0655 35.1052 14.4559 34.7147L 16.4917 32.6785C 16.8703 32.2998 16.8703 31.686 16.4917 31.3073L 16.4917 31.3073C 16.113 30.9287 15.4991 30.9287 15.1205 31.3073L 13.0844 33.3434C 12.6938 33.734 12.0606 33.7339 11.6701 33.3433L 9.63458 31.3074C 9.25596 30.9287 8.64203 30.9287 8.26337 31.3074L 8.26337 31.3074C 7.88476 31.686 7.88473 32.2998 8.2633 32.6785L 10.2992 34.7147C 10.6896 35.1052 10.6896 35.7383 10.2992 36.1288L 8.2633 38.165C 7.88473 38.5437 7.88476 39.1575 8.26337 39.5361L 8.26337 39.5361Z"/>
<path id="path3_fill" d="M 41.5761 12.5259C 41.5761 11.9904 41.1419 11.5562 40.6064 11.5562L 30.9094 11.5562C 30.3739 11.5562 29.9397 11.9903 29.9397 12.5259L 29.9397 12.5259C 29.9397 13.0614 30.3739 13.4956 30.9094 13.4956L 40.6064 13.4956C 41.1419 13.4956 41.5761 13.0614 41.5761 12.5259L 41.5761 12.5259Z"/>
<path id="path4_fill" d="M 41.5761 32.5029C 41.5761 31.9674 41.1419 31.5333 40.6064 31.5333L 30.9094 31.5333C 30.3739 31.5333 29.9397 31.9674 29.9397 32.5029L 29.9397 32.5029C 29.9397 33.0385 30.3739 33.4726 30.9094 33.4726L 40.6064 33.4726C 41.1419 33.4726 41.5761 33.0385 41.5761 32.5029L 41.5761 32.5029Z"/>
<path id="path5_fill" d="M 41.5761 38.3412C 41.5761 37.8056 41.1419 37.3715 40.6064 37.3715L 30.9094 37.3715C 30.3739 37.3715 29.9397 37.8056 29.9397 38.3412L 29.9397 38.3412C 29.9397 38.8767 30.3739 39.3109 30.9094 39.3109L 40.6064 39.3109C 41.1419 39.3109 41.5761 38.8767 41.5761 38.3412L 41.5761 38.3412Z"/>
</defs>
</svg>

<svg width="48" height="48" viewBox="0 0 48 48" xmlns="http://www.w3.org/2000/svg" xmlns:xlink="http://www.w3.org/1999/xlink" xmlns:figma="http://www.figma.com/figma/ns">
    <title>
        calculator
    </title>
    <desc>
        Created using Figma
    </desc>
    <g transform="translate(145 -35)" figma:type="canvas">
        <mask id="a">
            <path d="M-145 35h48v48h-48V35z" fill="#FFF"/>
        </mask>
        <g style="mix-blend-mode:normal" mask="url(#a)" figma:type="frame">
            <g style="mix-blend-mode:normal" figma:type="vector" transform="translate(-145 35)" fill="#3BB75E">
                <use xlink:href="#b" style="mix-blend-mode:normal"/>
                <use xlink:href="#c" style="mix-blend-mode:normal"/>
                <use xlink:href="#d" style="mix-blend-mode:normal"/>
                <use xlink:href="#e" style="mix-blend-mode:normal"/>
                <use xlink:href="#f" style="mix-blend-mode:normal"/>
                <use xlink:href="#g" style="mix-blend-mode:normal"/>
            </g>
        </g>
    </g>
    <defs>
        <path id="b" d="M42.936 0H5.064A5.07 5.07 0 0 0 0 5.064v37.872A5.07 5.07 0 0 0 5.064 48h37.872A5.07 5.07 0 0 0 48 42.936V5.064A5.07 5.07 0 0 0 42.936 0zM23.03 45.06a1 1 0 0 1-1 1H5.064a3.128 3.128 0 0 1-3.125-3.124V25.97a1 1 0 0 1 1-1H22.03a1 1 0 0 1 1 1v19.09zm0-23.03a1 1 0 0 1-1 1H2.94a1 1 0 0 1-1-1V5.064a3.128 3.128 0 0 1 3.124-3.125H22.03a1 1 0 0 1 1 1V22.03zm23.03 20.906a3.128 3.128 0 0 1-3.124 3.125H25.97a1 1 0 0 1-1-1V25.97a1 1 0 0 1 1-1h19.09a1 1 0 0 1 1 1v16.966zm0-20.906a1 1 0 0 1-1 1H25.97a1 1 0 0 1-1-1V2.94a1 1 0 0 1 1-1h16.966a3.128 3.128 0 0 1 3.125 3.124V22.03z"/>
        <path id="c" d="M11.408 17.374a.97.97 0 1 0 1.94 0l-.001-2.878a1 1 0 0 1 1-1h2.879a.97.97 0 0 0 0-1.94h-2.88a1 1 0 0 1-1-1V7.677a.97.97 0 0 0-1.94 0l.002 2.88a1 1 0 0 1-1 1h-2.88a.97.97 0 0 0 0 1.94l2.88-.001a1 1 0 0 1 1 1v2.878z"/>
        <path id="d" d="M8.263 39.536a.97.97 0 0 0 1.372 0L11.67 37.5a1 1 0 0 1 1.414 0l2.037 2.036a.97.97 0 1 0 1.371-1.371l-2.036-2.036a1 1 0 0 1 0-1.414l2.036-2.037a.97.97 0 0 0-1.371-1.371l-2.037 2.036a1 1 0 0 1-1.414 0l-2.035-2.036a.97.97 0 1 0-1.371 1.371l2.035 2.037a1 1 0 0 1 0 1.414l-2.036 2.036a.97.97 0 0 0 0 1.371z"/>
        <path id="e" d="M41.576 12.526a.97.97 0 0 0-.97-.97H30.91a.97.97 0 0 0 0 1.94h9.697a.97.97 0 0 0 .97-.97z"/>
        <path id="f" d="M41.576 32.503a.97.97 0 0 0-.97-.97H30.91a.97.97 0 0 0 0 1.94h9.697a.97.97 0 0 0 .97-.97z"/>
        <path id="g" d="M41.576 38.341a.97.97 0 0 0-.97-.97H30.91a.97.97 0 0 0 0 1.94h9.697a.97.97 0 0 0 .97-.97z"/>
    </defs>
</svg>
